X:833
T:Peggy Ramsey. [with bass notes]
C:John Malchair's Third Collection of Tunes
F:https://www.vwml.org/record/Malchair/3619/p83
F:www.vwml.org/topics/historic-dance-and-tune-books/Malchair
Z:Eric Conrad Apr 2020
W:[Ed: The MS has bass notes lightly written in the A part only.  These are included here.]
M:C|
L:1/4
K:Dmix % (?)
P:A
de fd &A,2 F,2 | dc cd & G2 E2 | eG GA & C2 A,2 | B2 A2 & F,2 D2 :|
P:B
BG GB | A^F DF | GG GA | B2 A2 |]

